img/icons/instagram.svg

<svg width="25" height="24" viewBox="0 0 25 24" fill="none" xmlns="http://www.w3.org/2000/svg">
<path d="M17.6794 5.67238C17.6794 4.98051 18.2682 4.41964 18.9947 4.41964C19.7211 4.41964 20.31 4.98051 20.31 5.67238C20.31 6.36424 19.7211 6.92512 18.9947 6.92512C18.2682 6.92512 17.6794 6.36424 17.6794 5.67238Z" fill="black"/>
<path fill-rule="evenodd" clip-rule="evenodd" d="M12.4182 5.98556C8.96774 5.98556 6.17057 8.64971 6.17057 11.9361C6.17057 15.2225 8.96774 17.8866 12.4182 17.8866C15.8688 17.8866 18.6659 15.2225 18.6659 11.9361C18.6659 8.64971 15.8688 5.98556 12.4182 5.98556ZM8.14351 11.9361C8.14351 9.68754 10.0574 7.86468 12.4182 7.86468C14.779 7.86468 16.6929 9.68754 16.6929 11.9361C16.6929 14.1846 14.779 16.0075 12.4182 16.0075C10.0574 16.0075 8.14351 14.1846 8.14351 11.9361Z" fill="black"/>
<path fill-rule="evenodd" clip-rule="evenodd" d="M19.3353 0.451678C14.7757 -0.0336972 10.0625 -0.0336972 5.50298 0.451678C2.85653 0.733382 0.720064 2.71899 0.408931 5.2527C-0.13631 9.69275 -0.13631 14.1783 0.408931 18.6184C0.720064 21.1521 2.85653 23.1377 5.50298 23.4194C10.0625 23.9047 14.7757 23.9047 19.3353 23.4194C21.9817 23.1377 24.1181 21.1521 24.4293 18.6184C24.9745 14.1783 24.9745 9.69275 24.4293 5.2527C24.1181 2.71899 21.9817 0.733382 19.3353 0.451678ZM5.72212 2.31915C10.136 1.8493 14.7022 1.8493 19.116 2.31915C20.8656 2.50538 22.267 3.82029 22.4698 5.47099C22.9972 9.76604 22.9972 14.105 22.4698 18.4001C22.267 20.0508 20.8656 21.3657 19.116 21.552C14.7022 22.0217 10.136 22.0217 5.72212 21.552C3.97264 21.3657 2.57121 20.0508 2.36851 18.4001C1.84107 14.105 1.84107 9.76604 2.36851 5.47099C2.57121 3.82029 3.97264 2.50538 5.72212 2.31915Z" fill="black"/>
</svg>

<svg xmlns="http://www.w3.org/2000/svg" width="25" height="24" fill="none" viewBox="0 0 25 24">
<path fill="#000"
      d="M17.68 5.672c0-.691.588-1.252 1.315-1.252.726 0 1.315.56 1.315 1.252s-.589 1.253-1.315 1.253c-.727 0-1.316-.56-1.316-1.253Z"/>
<path fill="#000" fill-rule="evenodd"
      d="M12.418 5.986c-3.45 0-6.247 2.664-6.247 5.95 0 3.287 2.797 5.95 6.247 5.95 3.45 0 6.248-2.663 6.248-5.95 0-3.286-2.797-5.95-6.248-5.95Zm-4.274 5.95c0-2.248 1.913-4.071 4.274-4.071 2.361 0 4.275 1.823 4.275 4.071 0 2.249-1.914 4.072-4.275 4.072-2.36 0-4.274-1.823-4.274-4.072Z"
      clip-rule="evenodd"/>
<path fill="#000" fill-rule="evenodd"
      d="M19.335.452a65.881 65.881 0 0 0-13.832 0C2.857.733.72 2.719.409 5.252a54.81 54.81 0 0 0 0 13.366c.311 2.534 2.448 4.52 5.094 4.801 4.56.486 9.273.486 13.832 0 2.647-.281 4.783-2.267 5.094-4.8.546-4.44.546-8.926 0-13.366-.31-2.534-2.447-4.52-5.094-4.801ZM5.722 2.319c4.414-.47 8.98-.47 13.394 0 1.75.186 3.151 1.501 3.354 3.152a53.024 53.024 0 0 1 0 12.93c-.203 1.65-1.604 2.965-3.354 3.151-4.414.47-8.98.47-13.394 0-1.75-.186-3.15-1.501-3.353-3.152a53.02 53.02 0 0 1 0-12.929c.202-1.65 1.604-2.966 3.353-3.152Z"
      clip-rule="evenodd"/>
</svg>
